X: 378
T:Vivrai je tousjours
N: Derived from Jos2837-Vivrai_je_tousjours.krn
C: Josquin des Prez
%%abc-version 2.0
%%abcx-abcm2ps-target-version 5.9.1 (29 Sep 2008)
%%abc-creator hum2abc beta
%%abcx-conversion-date 2019/02/12 16:15:55
%%abc-edited-by Jesse Rodin
%%abc-edited-by Will Watson 18/08/2011
%%abcx-initial-encoding-date 2011/08/18/
%%humdrum-veritas 371813568
%%humdrum-veritas-data 708100371
%%linebreak <none>
%%barnumbers 0
L: 1/4
M: 2/1
Q: 1/2=120
%%staves [1 2 3 4]
V: 1 clef=treble
V: 2 clef=treble-8
V: 3 clef=treble-8
V: 4 clef=bass
K: C
[V:1] D8 | 
[V:2] z8 | 
[V:3] z8 | 
[V:4] z8 | 
[V:1] A4A2A2 | 
[V:2] A8 | 
[V:3] z8 | 
[V:4] z8 | 
[V:1] G8 | 
[V:2] e4e2e2 | 
[V:3] z8 | 
[V:4] z8 | 
[V:1] d8 | 
[V:2] d3efef2- | 
[V:3] D8 | 
[V:4] z8 | 
[V:1] c6BA | 
[V:2] f2ede2f2 | 
[V:3] A4A2A2 | 
[V:4] A,,8 | 
[V:1] B4G4 | 
[V:2] g4e4 | 
[V:3] G8 | 
[V:4] E,4E,2E,2 | 
[V:1] A4D2A2- | 
[V:2] f6d2 | 
[V:3] d8 | 
[V:4] D,8 | 
[V:1] ABc4BA | 
[V:2] e4f4 | 
[V:3] c8 | 
[V:4] A,8 | 
[V:1] B4G4 | 
[V:2] g2G2B3c | 
[V:3] d4e4 | 
[V:4] G,6F,E, | 
[V:1] A3GABc2 | 
[V:2] d2e2f2g2- | 
[V:3] f6e2 | 
[V:4] D,6C,2 | 
[V:1] B2A4G2 | 
[V:2] g2f2e2d2 | 
[V:3] d2c2B4 | 
[V:4] G,2A,2E,2G,2 | 
[V:1] A8- | 
[V:2] f4e4 | 
[V:3] A8 | 
[V:4] D,4z2A,2 | 
[V:1] A8 | 
[V:2] z2e2e4 | 
[V:3] z8 | 
[V:4] A,4A,4 | 
[V:1] z8 | 
[V:2] e4d4- | 
[V:3] z4z2d2 | 
[V:4] G,6F,E, | 
[V:1] z2A2A4 | 
[V:2] d2cBA4 | 
[V:3] d4d4 | 
[V:4] D,8 | 
[V:1] A4G4- | 
[V:2] A2GFE4 | 
[V:3] c6BA | 
[V:4] z2A,,2C,4- | 
[V:1] G2FED2F2- | 
[V:2] z4_B4- | 
[V:3] G6D2 | 
[V:4] C,4_B,,4- | 
[V:1] F2EDE2D2 | 
[V:2] B4_B4 | 
[V:3] F4G4 | 
[V:4] B,,4G,,4 | 
[V:1] C4A,2_B,2- | 
[V:2] A3_Bc2d2- | 
[V:3] E4F2G2- | 
[V:4] A,,6G,,2 | 
[V:1] B,CD4C2 | 
[V:2] dc_B2A4 | 
[V:3] G2F2E4 | 
[V:4] _B,,4C,4 | 
[V:1] D8 | 
[V:2] G4z4 | 
[V:3] D4G3A | 
[V:4] G,,8- | 
[V:1] z4G4 | 
[V:2] d4d2B2 | 
[V:3] B8 | 
[V:4] G,,8 | 
[V:1] G2E2F3E | 
[V:2] c3BA2d2- | 
[V:3] z8 | 
[V:4] z8 | 
[V:1] D4z4 | 
[V:2] d2d2B2c2- | 
[V:3] z8 | 
[V:4] G,4G,2E,2 | 
[V:1] A4A2F2 | 
[V:2] cBAGA4 | 
[V:3] z4d4 | 
[V:4] F,3E,D,4 | 
[V:1] G3FE4 | 
[V:2] B2G3FE2 | 
[V:3] d2B2c3B | 
[V:4] G,,4C,4 | 
[V:1] D2F3EE2 | 
[V:2] F3GA4- | 
[V:3] A4c4 | 
[V:4] D,4A,,4 | 
[V:1] D2F3EE2- | 
[V:2] A2F2G4 | 
[V:3] d4B2c2- | 
[V:4] D,4E,4 | 
[V:1] E2DCD4 | 
[V:2] A8 | 
[V:3] cBAGA4- | 
[V:4] F,4F,4 | 
[V:1] E8- | 
[V:2] B8 | 
[V:3] A2^G^F^G4 | 
[V:4] E,8 | 
[V:1] E8 | 
[V:2] c6A2 | 
[V:3] A8 | 
[V:4] A,,4z4 | 
[V:1] E4z2c2- | 
[V:2] c3de2f2 | 
[V:3] z8 | 
[V:4] A,6A,2 | 
[V:1] c2B2A4 | 
[V:2] g2G2A3B | 
[V:3] z8 | 
[V:4] G,4F,4 | 
[V:1] G4z2c2- | 
[V:2] c2G2g4- | 
[V:3] e6e2 | 
[V:4] E,6C,2 | 
[V:1] c2B2A4 | 
[V:2] g4e4 | 
[V:3] d4c4 | 
[V:4] G,4A,4 | 
[V:1] G6FE | 
[V:2] e4d3c | 
[V:3] B6G2 | 
[V:4] E,4G,4 | 
[V:1] D2G3FE2 | 
[V:2] BAB2c4 | 
[V:3] d4e4 | 
[V:4] G,3F,E,2C,2 | 
[V:1] D4C4 | 
[V:2] G2g3fed | 
[V:3] B4c3B | 
[V:4] G,4C,4 | 
[V:1] z2C2D2E2- | 
[V:2] cBA3FGA | 
[V:3] A3GF2G2- | 
[V:4] F,3E,D,2C,2 | 
[V:1] EDD4C2 | 
[V:2] _B4A4 | 
[V:3] G2G2E3F | 
[V:4] _B,,2G,,2A,,4 | 
[V:1] D8 | 
[V:2] B8 | 
[V:3] G8 | 
[V:4] G,,4z4 | 
[V:1] z4F4 | 
[V:2] A3Dd4 | 
[V:3] F4z4 | 
[V:4] D,6D,2 | 
[V:1] G4A4 | 
[V:2] c2B2A4 | 
[V:3] z8 | 
[V:4] E,4F,4 | 
[V:1] D4G4 | 
[V:2] B3cd2e2 | 
[V:3] G6G2 | 
[V:4] G,6E,2 | 
[V:1] F3ED4 | 
[V:2] c4z2g2- | 
[V:3] A4B4 | 
[V:4] F,4G,4 | 
[V:1] E4A,2A2- | 
[V:2] gfe4d2 | 
[V:3] c6A2 | 
[V:4] C,4F,4 | 
[V:1] A2G2A4 | 
[V:2] e3gf2e2- | 
[V:3] B4c4 | 
[V:4] E,4A,4 | 
[V:1] z8 | 
[V:2] e2d4^c2 | 
[V:3] B2A4G2 | 
[V:4] G,2F,2E,4 | 
[V:1] z2A3GE2 | 
[V:2] d2f3ec2- | 
[V:3] A8 | 
[V:4] D,4z2A,2- | 
[V:1] F2G4A2 | 
[V:2] c2d2e2A2 | 
[V:3] z4z2c2 | 
[V:4] A,2G,2E,2F,2 | 
[V:1] F2A4G2 | 
[V:2] z2ABcde2- | 
[V:3] d2c2A2B2 | 
[V:4] D,2F,4E,2 | 
[V:1] E2F2A2G2- | 
[V:2] e2d2c2e2- | 
[V:3] c2A4B2 | 
[V:4] C,2D,2F,2E,2 | 
[V:1] GEG2F2E2 | 
[V:2] ede2d2B2 | 
[V:3] c3BA2G2- | 
[V:4] C,4D,2E,2- | 
[V:1] G2F3DF2 | 
[V:2] c2d2A3B | 
[V:3] G2A2F3G | 
[V:4] E,2D,3C,D,2 | 
[V:1] E2C2D2E2 | 
[V:2] c8 | 
[V:3] A4G3E | 
[V:4] C,2A,,2B,,2C,2 | 
[V:1] EDD4^C2 | 
[V:2] A2_B2A4- | 
[V:3] F2G2E4 | 
[V:4] D,2G,,2A,,4 | 
[V:1] D2A3GE2 | 
[V:2] A2f3ec2- | 
[V:3] D4A4 | 
[V:4] D,6A,2- | 
[V:1] F2G4A2 | 
[V:2] c2d2e2A2 | 
[V:3] z4z2c2 | 
[V:4] A,2G,2E,2F,2 | 
[V:1] F2A4G2 | 
[V:2] z2ABcde2- | 
[V:3] d2c2A2B2 | 
[V:4] D,2F,4E,2 | 
[V:1] E2F2A2G2- | 
[V:2] e2d2c2e2- | 
[V:3] c2A4B2 | 
[V:4] C,2D,2F,2E,2 | 
[V:1] GEG2F2E2 | 
[V:2] ede2d2B2 | 
[V:3] c3BA2G2- | 
[V:4] C,4D,2E,2- | 
[V:1] G2F3DF2 | 
[V:2] c2d2A3B | 
[V:3] G2A2F3G | 
[V:4] E,2D,3C,D,2 | 
[V:1] E2C2D2E2- | 
[V:2] c8 | 
[V:3] A4G3E | 
[V:4] C,2A,,2B,,2C,2 | 
[V:1] E2D4^C2 | 
[V:2] A2_B2A4 | 
[V:3] F2G2E4 | 
[V:4] D,2G,,2A,,4 | 
[V:1] D8 |]  
[V:2] A8 |]  
[V:3] D8 |]  
[V:4] D,8 |]  



